X: 41567
T: Unlimited
R: hornpipe
M: 4/4
K: Dmajor
|:"D"A>df>d "G"g2 g>f|"D"d>fe>d "A"e>dB>d|"D"A>df>d "G"g2 g>f|"D"d>fe>d "A"~e2 e>d|
"D"A>df>d "G"g2 g>f|"D"d>fe>d "A"e>dB>d|"G"g2 g>f "D"d>fe>d|"A"e>de>f "D"d2 d>B:|
|:"G"g2 g>e "D"f2 f>d|"A"e>dB>d "A"e>d"D"f>d|"G"g>ag>e "D"f>gf>d|"D"f>ed>f "A"e>Ac>e|
"G"g2 g>e "D"f2 f>d|"A"e>dB>d "A"e>d"D"f>d|"G"g>ab>a g>fe>d|"A"c>AB>c "D"d2 d>B:|

